X: '1'
T:L'Aile Brise
C:Laurence Beaudry
N:© Laurence Beaudry, Reproduced with Permission
Z:robin.beech@mcgill.ca
R:waltz
M:3/4
L:1/8
K:Bmin
|: B3cd2 | F3dc2 | d2B2F2 |1 g3f3 | e3fg2 | c3de2 | _B3GF2 | E2c2d2 :|2
a4g2 | e2gf2 | d3ef2 | c3ed2 | B6 |: G2B2d2 | F2d2F2 | E2A2c2 |
d2f2d2 | G2B2d2 | F2A2d2 | c2a2g2 | f4=c2 | B2g2B2 | _B2 a2g2 | _B2g2B2 |
A2g2f2 |1 ^G2B2E2 | e2E2d2 | c2B2A2 | [B6^G6] :|2 ^G2B2e2 | f2d2B2 | ^G2E2c2 | A6  |]
